Tela/other/panel/mic-volume-medium.svg

<svg xmlns="http://www.w3.org/2000/svg" width="22" height="22" version="1.1">
 <defs>
  <style id="current-color-scheme" type="text/css">
   .ColorScheme-Text { color:#dfdfdf; } .ColorScheme-Highlight { color:#5294e2; }
  </style>
 </defs>
 <g transform="translate(3,3)">
  <path style="fill:currentColor" class="ColorScheme-Text" d="m5 6v2.002c0 1.6619 1.3379 2.998 3 2.998s3-1.3362 3-2.998v-2.002z"/>
  <path style="fill:currentColor" class="ColorScheme-Text" d="m2 7v0.9985c0 2.9665 2 6.0015 5 6.0015v2h2v-2c3 0 5-3.0351 5-6.0015v-0.9985h-2v0.9985c0 2.2345-1.767 4.0015-4 4.0015-2.2334 0-4-1.767-4-4.0015v-0.9985h-2z"/>
  <path opacity=".3" style="fill:currentColor" class="ColorScheme-Text" d="m8 0c-1.6621 0-3 1.3381-3 3v3h6v-3c0-1.6619-1.3379-3-3-3z"/>
 </g>
</svg>

<svg xmlns="http://www.w3.org/2000/svg" width="24" height="24" version="1.1">
 <defs>
  <style id="current-color-scheme" type="text/css">
   .ColorScheme-Text { color:#dfdfdf; } .ColorScheme-Highlight { color:#5294e2; }
  </style>
 </defs>
 <g transform="translate(4,4)">
  <path style="fill:currentColor" class="ColorScheme-Text" d="M 5,6 5,8.002 C 5,9.6639 6.3379,11 8,11 9.6621,11 11,9.6638 11,8.002 L 11,6 Z"/>
  <path style="fill:currentColor" class="ColorScheme-Text" d="M 2,7 2,7.9985 C 2,10.965 4,14 7,14 l 0,2 2,0 0,-2 c 3,0 5,-3.0351 5,-6.0015 L 14,7 12,7 12,7.9985 C 12,10.233 10.233,12 8,12 5.7666,12 4,10.233 4,7.9985 L 4,7 2,7 Z"/>
  <path style="opacity:0.3;fill:currentColor" class="ColorScheme-Text" d="M 8,0 C 6.3379,0 5,1.3381 5,3 l 0,3 6,0 0,-3 C 11,1.3381 9.6621,0 8,0 Z"/>
 </g>
</svg>
